images/footer-facebook.svg

<svg width="24" height="24" viewBox="0 0 24 24" fill="none" xmlns="http://www.w3.org/2000/svg">
<path d="M13.397 20.9972V12.8012H16.162L16.573 9.59217H13.397V7.54817C13.397 6.62217 13.655 5.98817 14.984 5.98817H16.668V3.12717C15.8487 3.03936 15.0251 2.99696 14.201 3.00017C11.757 3.00017 10.079 4.49217 10.079 7.23117V9.58617H7.33203V12.7952H10.085V20.9972H13.397Z" fill="#95E1D3"/>
</svg>

<svg width="24" height="24" fill="none" xmlns="http://www.w3.org/2000/svg"><path d="M13.397 20.997v-8.196h2.765l.411-3.209h-3.176V7.548c0-.926.258-1.56 1.587-1.56h1.684v-2.86c-.82-.089-1.643-.131-2.467-.128-2.444 0-4.122 1.492-4.122 4.231v2.355H7.332v3.21h2.753v8.201h3.312Z" fill="#95E1D3"/></svg>
